X: 38697
T: Strawberry Blossom, The
R: reel
M: 4/4
K: Dmajor
|ag|:fddf edBg|fddf ~g2 ag|fddf edBc|dBAF E2Dg:|
faaf dcde|faaf ~g3 e|faab afdf|gfed Bcde|
faaf dcde|faaf g2fg|bgaf gfed|(3.B.cd df ~g2 ag||

